packages/foundations/assets/icons/functional/images/communication/chat_14.svg

<svg width="14" height="14" viewBox="0 0 14 14" fill="none" xmlns="http://www.w3.org/2000/svg">
<g clip-path="url(#clip0_2204_2154)">
<path fill-rule="evenodd" clip-rule="evenodd" d="M1.40002 11.9716C1.40002 12.3268 1.75513 12.5726 2.09659 12.5726C2.27418 12.5726 2.43805 12.518 2.57462 12.3814L4.21367 10.7287C4.35024 10.5785 4.6098 10.5272 4.76002 10.5272H10.9337C11.8351 10.5272 12.6 9.66338 12.6 8.74827V3.039C12.6 2.16484 11.7942 1.42725 10.8654 1.42725H3.20294C2.16491 1.42725 1.40002 2.23309 1.40002 3.14827V11.9716ZM2.80688 10.1961L2.80002 2.82725H11.2V9.12725H4.6644C4.1044 9.12725 3.66732 9.33557 3.28491 9.71798L2.80688 10.1961ZM4.20002 6.32725V7.72725H9.80002V6.32725H4.20002ZM4.20002 4.22725V5.62725L9.80002 5.62046V4.22725H4.20002Z" fill="#1A1C1F"/>
</g>
<defs>
<clipPath id="clip0_2204_2154">
<rect width="14" height="14" fill="white"/>
</clipPath>
</defs>
</svg>

<svg xmlns="http://www.w3.org/2000/svg" width="14" height="14" fill="none"><g clip-path="url(#a)"><path fill="#1A1C1F" fill-rule="evenodd" d="M1.4 11.972c0 .355.355.6.697.6a.65.65 0 0 0 .478-.19l1.639-1.653c.136-.15.396-.202.546-.202h6.174c.901 0 1.666-.864 1.666-1.779V3.04c0-.874-.806-1.612-1.735-1.612H3.203c-1.038 0-1.803.806-1.803 1.721zm1.407-1.776L2.8 2.827h8.4v6.3H4.664c-.56 0-.997.209-1.38.591zM4.2 6.327v1.4h5.6v-1.4zm0-2.1v1.4l5.6-.007V4.227z" clip-rule="evenodd"/></g><defs><clipPath id="a"><path fill="#fff" d="M0 0h14v14H0z"/></clipPath></defs></svg>
